svgs/plus_messenger.svg

<?xml version="1.0" encoding="UTF-8" standalone="no"?>
<svg
   width="24"
   height="24"
   viewBox="0 0 24 24"
   fill="none"
   version="1.1"
   id="svg6"
   sodipodi:docname="plus_messenger.svg"
   inkscape:version="1.1.1 (3bf5ae0d25, 2021-09-20)"
   xmlns:inkscape="http://www.inkscape.org/namespaces/inkscape"
   xmlns:sodipodi="http://sodipodi.sourceforge.net/DTD/sodipodi-0.dtd"
   xmlns="http://www.w3.org/2000/svg"
   xmlns:svg="http://www.w3.org/2000/svg">
  <defs
     id="defs10">
    <inkscape:path-effect
       effect="fillet_chamfer"
       id="path-effect3772"
       is_visible="true"
       lpeversion="1"
       satellites_param="F,0,0,1,0,4,0,1 @ F,0,0,1,0,0,0,1 @ F,0,1,1,0,4,0,1 @ F,0,1,1,0,4,0,1 @ F,0,0,1,0,0,0,1 @ F,0,0,1,0,4,0,1 @ F,0,0,1,0,4,0,1 @ F,0,0,1,0,0,0,1 @ F,0,0,1,0,4,0,1 @ F,0,0,1,0,4,0,1 @ F,0,0,1,0,0,0,1 @ F,0,0,1,0,4,0,1"
       unit="px"
       method="auto"
       mode="F"
       radius="4"
       chamfer_steps="1"
       flexible="false"
       use_knot_distance="true"
       apply_no_radius="true"
       apply_with_radius="true"
       only_selected="true"
       hide_knots="false" />
    <inkscape:path-effect
       effect="fillet_chamfer"
       id="path-effect10206"
       is_visible="true"
       lpeversion="1"
       satellites_param="F,0,0,1,0,2,0,1 @ F,0,0,1,0,2,0,1 @ F,0,0,1,0,2,0,1 @ F,0,0,1,0,2,0,1 @ F,0,0,1,0,0,0,1 @ F,0,0,1,0,0,0,1 @ F,0,0,1,0,0,0,1 @ F,0,1,1,0,0,0,1"
       unit="px"
       method="auto"
       mode="F"
       radius="0"
       chamfer_steps="1"
       flexible="false"
       use_knot_distance="true"
       apply_no_radius="true"
       apply_with_radius="true"
       only_selected="true"
       hide_knots="false" />
    <inkscape:path-effect
       effect="fillet_chamfer"
       id="path-effect3719"
       is_visible="true"
       lpeversion="1"
       satellites_param="F,0,0,1,0,0,0,1 @ F,0,0,1,0,2,0,1 @ F,0,0,1,0,2,0,1 @ IF,0,0,1,0,0,0,1 @ IF,0,0,1,0,0,0,1 @ IF,0,0,1,0,0,0,1 @ IF,0,0,1,0,0,0,1 @ F,0,0,1,0,0,0,1 @ F,0,1,1,0,1.804331,0,1 @ F,0,1,1,0,0,0,1"
       unit="px"
       method="auto"
       mode="F"
       radius="2"
       chamfer_steps="1"
       flexible="false"
       use_knot_distance="true"
       apply_no_radius="true"
       apply_with_radius="true"
       only_selected="true"
       hide_knots="false" />
    <inkscape:path-effect
       effect="bspline"
       id="path-effect3717"
       is_visible="true"
       lpeversion="1"
       weight="33.333333"
       steps="2"
       helper_size="0"
       apply_no_weight="true"
       apply_with_weight="true"
       only_selected="false" />
  </defs>
  <sodipodi:namedview
     id="namedview8"
     pagecolor="#ffffff"
     bordercolor="#666666"
     borderopacity="1.0"
     inkscape:pageshadow="2"
     inkscape:pageopacity="0.0"
     inkscape:pagecheckerboard="0"
     showgrid="true"
     objecttolerance="20"
     guidetolerance="10000"
     inkscape:zoom="11.313709"
     inkscape:cx="3.1819805"
     inkscape:cy="8.2643105"
     inkscape:window-width="2560"
     inkscape:window-height="1015"
     inkscape:window-x="0"
     inkscape:window-y="32"
     inkscape:window-maximized="1"
     inkscape:current-layer="svg6">
    <inkscape:grid
       type="xygrid"
       id="grid358"
       empspacing="1" />
  </sodipodi:namedview>
  <path
     id="path860"
     style="opacity:1;fill:#000000;stroke-width:0.229983;stroke-linecap:round;stroke-linejoin:round"
     d="M 12,2 A 8.7393599,8.7393599 0 0 0 11.885008,2.0083 V 2.0029 C 11.521549,2.0076 11.164273,2.03711 10.812802,2.08488 A 8.7393599,8.7393599 0 0 0 10.707018,2.0997 C 10.319411,2.15721 9.940286,2.240116 9.571027,2.346753 a 8.7393599,8.7393599 0 0 0 -0.06625,0.01954 C 9.124,2.479551 8.754177,2.617521 8.397085,2.77932 a 8.7393599,8.7393599 0 0 0 -0.0575,0.02673 C 7.98149,2.971462 7.636384,3.159775 7.306458,3.370228 a 8.7393599,8.7393599 0 0 0 -0.06558,0.04267 C 6.915487,3.624575 6.605016,3.856798 6.311512,4.108687 a 8.7393599,8.7393599 0 0 0 -0.0712,0.06244 C 5.950478,4.425343 5.677452,4.697942 5.423468,4.987971 a 8.7393599,8.7393599 0 0 0 -0.05615,0.06558 C 5.111728,5.351266 4.875579,5.665885 4.661422,5.996392 a 8.7393599,8.7393599 0 0 0 -0.02628,0.04155 C 4.41766,6.37775 4.222996,6.73322 4.053446,7.102962 a 8.7393599,8.7393599 0 0 0 -0.0058,0.01325 C 3.877034,7.48991 3.731861,7.877407 3.614631,8.277133 3.499176,8.670806 3.410105,9.075765 3.350734,9.490384 a 8.7393599,8.7393599 0 0 0 -0.0018,0.01393 C 3.291766,9.907968 3.26064,10.319913 3.26064,10.73936 3.26064,17.167823 9.893995,21.823186 11.885008,22 V 19.47041 A 8.7393599,8.7393599 0 0 0 12,19.47871 8.7393599,8.7393599 0 0 0 20.73936,10.73935 8.7393599,8.7393599 0 0 0 12,2 Z m -0.459966,5.519596 h 0.919932 a 0.45996631,0.45996631 0 0 1 0.459967,0.459966 v 1.839865 h 1.839865 a 0.45996631,0.45996631 0 0 1 0.459966,0.459967 v 0.919932 a 0.45996631,0.45996631 0 0 1 -0.459966,0.459967 h -1.839865 v 1.839865 a 0.45996631,0.45996631 0 0 1 -0.459967,0.459966 H 11.540034 A 0.45996631,0.45996631 0 0 1 11.080067,13.499158 V 11.659293 H 9.240202 A 0.45996631,0.45996631 0 0 1 8.780236,11.199326 V 10.279394 A 0.45996631,0.45996631 0 0 1 9.240202,9.819427 h 1.839865 V 7.979562 a 0.45996631,0.45996631 0 0 1 0.459967,-0.459966 z" />
</svg>

<svg xmlns="http://www.w3.org/2000/svg" width="24" height="24" fill="none" viewBox="0 0 24 24"><path d="M12 2a8.74 8.74 0 0 0-.115.008v-.005c-.363.005-.72.034-1.072.082a8.74 8.74 0 0 0-.106.015 8.69 8.69 0 0 0-1.136.247 8.74 8.74 0 0 0-.066.02c-.381.113-.75.25-1.108.412a8.74 8.74 0 0 0-.057.027 8.72 8.72 0 0 0-1.034.564 8.74 8.74 0 0 0-.065.043 8.767 8.767 0 0 0-.93.696 8.74 8.74 0 0 0-.07.062 8.76 8.76 0 0 0-.818.817 8.74 8.74 0 0 0-.056.066 8.764 8.764 0 0 0-.706.942 8.74 8.74 0 0 0-.026.042c-.217.34-.412.695-.582 1.065a8.74 8.74 0 0 0-.005.013A8.668 8.668 0 0 0 3.35 9.49a8.74 8.74 0 0 0-.002.014 8.8 8.8 0 0 0-.088 1.235c0 6.429 6.633 11.084 8.624 11.261v-2.53a8.74 8.74 0 0 0 .115.009 8.74 8.74 0 0 0 8.74-8.74A8.74 8.74 0 0 0 12 2m-.46 5.52h.92a.46.46 0 0 1 .46.46v1.84h1.84a.46.46 0 0 1 .46.46v.92a.46.46 0 0 1-.46.46h-1.84v1.84a.46.46 0 0 1-.46.46h-.92a.46.46 0 0 1-.46-.46v-1.84H9.24a.46.46 0 0 1-.46-.46v-.92a.46.46 0 0 1 .46-.46h1.84V7.98a.46.46 0 0 1 .46-.46" style="opacity:1;fill:#000;stroke-width:.229983;stroke-linecap:round;stroke-linejoin:round"/></svg>
